16x16/panel/keybase-badged-uploading.svg

<svg xmlns="http://www.w3.org/2000/svg" width="16" height="16" version="1.1">
 <defs>
  <style id="current-color-scheme" type="text/css">
   .ColorScheme-Text { color:#323a41; } .ColorScheme-Highlight { color:#4285f4; } .ColorScheme-NeutralText { color:#ff9800; } .ColorScheme-PositiveText { color:#4caf50; } .ColorScheme-NegativeText { color:#f44336; }
  </style>
 </defs>
 <path style="fill:currentColor" class="ColorScheme-Text" d="M 7,1 C 6.96924,1 6.659927,1.6290934 6.46875,2.0078125 6.1888835,2.562226 6.0555541,2.9898894 6.0097656,3.4824219 c -0.011312,0.12171 -0.00954,0.241871 -0.00195,0.359375 C 6.0030794,3.8947319 6.00049,3.946858 6,4 6,4.4587653 6.1601643,4.8774025 6.4199219,5.2148438 4.9615166,5.6130806 3.7224106,6.545039 2.9316406,7.7910156 2.7764446,7.9939532 2.6404076,8.204923 2.5410156,8.4316406 2.3848326,8.7879022 2.2676025,9.1563479 2.1796875,9.5546875 c -0.0585,0.2363652 -0.1071748,0.4761705 -0.1367187,0.7226565 -0.0026,0.02194 0.00489,0.02655 0.015625,0.02344 -0.01128,0.09494 -0.026376,0.185721 -0.035156,0.285157 -0.02812,0.318756 -0.031172,0.449217 -0.00977,0.449218 L 6,7 5.0390625,10.011719 c 0.0052,0.0052 -0.1058848,0.04768 0.027344,-0.013672 C 5.8849509,9.6211566 6.6352694,9.1115363 7.5371094,9.0039062 7.8481182,8.9667905 8.9257704,8.966026 9.25,9 9.57761,9.0343275 9.8914164,9.219586 10.214844,9.421875 10.769183,9.1448664 11.380302,9.0004443 12,9 c 0.408814,-9.61e-5 0.815227,0.06248 1.205078,0.1855469 0.08832,-0.2465709 0.129389,-0.5146847 0.09766,-0.7597657 -0.0068,-0.052432 -0.02062,-0.1014581 -0.03125,-0.1523437 0.02116,-0.052393 0.0015,-0.141107 -0.08203,-0.2871094 C 13.107258,7.7679272 12.985456,7.5499904 12.802734,7.3027344 11.917775,6.3302765 10.8369,5.5643702 9.5800781,5.2128906 9.8392798,4.8756471 10,4.4582227 10,4 9.999983,3.949163 9.99805,3.8983453 9.99414,3.8476562 9.99584,3.7969862 10.00063,3.745172 9.99805,3.6953125 9.9627528,3.010501 9.566885,2.5413464 8.96875,2.2324219 8.6520787,2.0688674 8.167645,1.9928182 7.8515625,1.9921875 7.3695269,1.9261045 7.2900031,1.2786987 7,1 Z M 4.5527344,9.8867188 c 0,-3e-7 -0.4140169,0.3631912 -1.828125,1.8515622 -0.167851,0.169733 -0.3928843,0.261141 -0.6289063,0.28125 C 2.2871422,13.128541 2.7866278,14.161353 3.5371094,15 l 5.0039062,0 C 8.1881535,14.392419 8.0015552,13.702612 8,13 8.001626,11.885529 8.4681309,10.822265 9.2871094,10.066406 9.2577293,10.05454 9.1523473,9.9947561 9.1464844,9.9941406 9.0522454,9.9842606 7.698979,9.9909936 7.65625,9.9960938 7.0599863,10.067255 6.4051922,10.482424 5.4902344,10.904297 c -0.0024,0.0012 -0.00346,7.59e-4 -0.00586,0.002 -0.00328,0.0016 -0.012435,0.0082 -0.015625,0.0098 -0.050698,0.02504 -0.057682,0.03073 -0.1386719,0.05859 -0.020247,0.007 -0.1164672,0.03305 -0.1171875,0.0332 -3.601e-4,8.6e-5 -0.2595855,0.02149 -0.2597656,0.02149 L 4.625,10.957031 4.5390625,10.917969 5,10.03125 c 0,0 -0.2241481,-0.072871 -0.4472656,-0.1445312 z M 12,10 c -1.656751,0 -3,1.35 -3,3 0,1.65 1.343249,3 3,3 1.65675,0 3,-1.35 3,-3 0,-1.65 -1.34325,-3 -3,-3 z m 0.0039,0.5 2.4961,2.5 -1.5,0 0,2 -2,0 0,-2 -1.5,0 z M 5,12 c 0.5522847,0 1,0.447715 1,1 0,0.552285 -0.4477153,1 -1,1 -0.5522847,0 -1,-0.447715 -1,-1 0,-0.552285 0.4477153,-1 1,-1 z"/>
 <circle style="fill:currentColor" class="ColorScheme-Highlight" cx="13.5" cy="3.5" r="1.5"/>
</svg>

<svg xmlns="http://www.w3.org/2000/svg" width="16" height="16"><defs><style id="current-color-scheme" type="text/css"></style></defs><path style="fill:currentColor;color:#323a41" d="M7 1c-.03 0-.34.63-.531 1.008-.28.554-.413.982-.46 1.474-.01.122-.009.242-.001.36a1.984 1.984 0 0 0 .412 1.373A6.014 6.014 0 0 0 2.932 7.79a3.137 3.137 0 0 0-.391.64 5.971 5.971 0 0 0-.361 1.124 5.95 5.95 0 0 0-.137.722c-.003.022.005.027.016.024-.012.095-.027.186-.036.285-.028.319-.03.45-.01.45L6 7l-.96 3.012c.004.005-.107.047.026-.014.819-.377 1.57-.886 2.471-.994.311-.037 1.389-.038 1.713-.004.328.034.641.22.965.422a4 4 0 0 1 2.99-.236c.088-.247.13-.515.098-.76-.007-.053-.02-.102-.032-.153.022-.052.002-.14-.082-.287a2.805 2.805 0 0 0-.386-.683c-.885-.973-1.966-1.739-3.223-2.09a1.983 1.983 0 0 0 .414-1.365c.002-.051.007-.103.004-.153-.035-.684-.431-1.154-1.03-1.463-.316-.163-.8-.24-1.116-.24C7.37 1.926 7.29 1.28 7 1zM4.553 9.887s-.414.363-1.828 1.851a.993.993 0 0 1-.63.282A6 6 0 0 0 3.538 15h5.004A4 4 0 0 1 8 13a4 4 0 0 1 1.287-2.934c-.03-.011-.135-.071-.14-.072a49.165 49.165 0 0 0-1.49.002c-.597.071-1.252.486-2.167.908l-.006.002-.015.01c-.05.025-.058.03-.139.059-.02.007-.116.033-.117.033l-.26.021-.328-.072-.086-.039.461-.887-.447-.144zM12 10c-1.657 0-3 1.35-3 3s1.343 3 3 3 3-1.35 3-3-1.343-3-3-3zm.004.5L14.5 13H13v2h-2v-2H9.5zM5 12a1 1 0 1 1 0 2 1 1 0 0 1 0-2z"/><circle style="fill:currentColor;color:#4285f4" cx="13.5" cy="3.5" r="1.5"/></svg>
